logo/google-gmail.svg

<?xml version="1.0" encoding="UTF-8"?>
<svg width="256px" height="193px" viewBox="0 0 256 193" version="1.1" xmlns="http://www.w3.org/2000/svg" xmlns:xlink="http://www.w3.org/1999/xlink" preserveAspectRatio="xMidYMid">
    <g>
        <path d="M58.1818182,192.049515 L58.1818182,93.1404244 L27.5066233,65.0770089 L0,49.5040608 L0,174.59497 C0,184.253152 7.82545455,192.049515 17.4545455,192.049515 L58.1818182,192.049515 Z" fill="#4285F4"></path>
        <path d="M197.818182,192.049515 L238.545455,192.049515 C248.203636,192.049515 256,184.224061 256,174.59497 L256,49.5040608 L224.844415,67.3422767 L197.818182,93.1404244 L197.818182,192.049515 Z" fill="#34A853"></path>
        <polygon fill="#EA4335" points="58.1818182 93.1404244 54.0077618 54.4932827 58.1818182 17.5040608 128 69.8676972 197.818182 17.5040608 202.487488 52.4960089 197.818182 93.1404244 128 145.504061"></polygon>
        <path d="M197.818182,17.5040608 L197.818182,93.1404244 L256,49.5040608 L256,26.2313335 C256,4.64587897 231.36,-7.65957557 214.109091,5.28587897 L197.818182,17.5040608 Z" fill="#FBBC04"></path>
        <path d="M0,49.5040608 L26.7588051,69.5731646 L58.1818182,93.1404244 L58.1818182,17.5040608 L41.8909091,5.28587897 C24.6109091,-7.65957557 0,4.64587897 0,26.2313335 L0,49.5040608 Z" fill="#C5221F"></path>
    </g>
</svg>

<svg viewBox="0 0 256 193" xmlns="http://www.w3.org/2000/svg"><path fill="#4285F4" d="M58.18 192.04V93.13L27.5 65.06 -.01 49.48v125.09c0 9.65 7.82 17.45 17.45 17.45h40.72Z"/><path fill="#34A853" d="M197.81 192.04h40.72c9.65 0 17.45-7.83 17.45-17.46V49.48l-31.16 17.83 -27.03 25.79V192Z"/><path fill="#EA4335" d="M58.18 93.14L54 54.49l4.17-36.99 69.81 52.36 69.81-52.37 4.66 34.99 -4.67 40.64 -69.82 52.36Z"/><path fill="#FBBC04" d="M197.81 17.5v75.63l58.18-43.64V26.21c0-21.59-24.64-33.9-41.9-20.95l-16.3 12.21Z"/><path fill="#C5221F" d="M0 49.5l26.75 20.06 31.42 23.56V17.48L41.87 5.26C24.59-7.69-.03 4.62-.03 26.2v23.27Z"/></svg>
